papirus/48x48/apps/google-play-music-desktop-player.svg

<svg height="48" viewBox="0 0 48 48" width="48" xmlns="http://www.w3.org/2000/svg"><path d="m40.358455 21.751952l-30.4141865-17.2341501c-1.2995566-.727563-2.4623179-.659354-3.1690943.0227364l0 0c-.5015834.4774633-.7751742 1.250499-.7751742 2.2508983v34.4000924c0 1.000399.2963902 1.773436.7751742 2.250898l0 0c .7295756.704828 1.8695377.773037 3.1690943.02274l30.4141865-17.234154c2.188727-1.227763 2.188727-3.228562 0-4.479061z" fill="#eb4d27"/><path d="m8.1367188 4c-.541482.0113682-1.00794.1999704-1.3613282.5410156-.5015834.4774633-.7753906 1.2496007-.7753906 2.25v1c0-1.0003993.2738072-1.7725367.7753906-2.25.7067764-.6820904 1.8684122-.7510005 3.1679688-.0234375l30.4160156 17.2343749c.868444.496174 1.385172 1.110785 1.564453 1.748047.273324-.966335-.243628-1.993412-1.564453-2.748047l-30.4160156-17.2343749c-.6497783-.3637815-1.2651587-.5289463-1.8066406-.5175781z" fill="#fff" opacity=".2"/><path d="m24 9c-3.804425 0-7.267795 1.427581-9.912109 3.761719a15 15 0 0 0 -.00586.005859c-.362461.320299-.709095.656244-1.039062 1.009766a15 15 0 0 0 -.078125.08789c-.301308.327903-.58789.667684-.859375 1.021485a15 15 0 0 0 -.126953.169922c-.251099.33696-.488313.683088-.710938 1.041015a15 15 0 0 0 -.128906.212891c-.209685.34994-.404734.708475-.585938 1.076172a15 15 0 0 0 -.125.257812c-.167934.357927-.321134.723014-.4609371 1.095703a15 15 0 0 0 -.1074219.292969c-.1260688.358792-.2369664.723065-.3359375 1.09375a15 15 0 0 0 -.0996094.384766c-.0784188.3287-.1447887.661347-.2011719.998047a15 15 0 0 0 -.0839843.552734c-.0359881.278353-.0615205.558876-.0820313.841797a15 15 0 0 0 -.0566406 1.095703c0 .469526.0281042.932113.0703125 1.390625a15 15 0 0 0  .0332031.289063c.0449381.402495.1054936.799178.1816406 1.191406a15 15 0 0 0  .0332032.171875c.2000358.969512.4937922 1.903648.8710936 2.794922a15 15 0 0 0 0 .003906c.590378 1.393676 1.385603 2.677903 2.347656 3.818359 1.493241 1.770147 3.380257 3.196696 5.53711 4.125.048539.020891.098659.026347.148437.027344a15 15 0 0 0 1.001953.392578l18.22461-10.326172c.245991-.07216.464215-.193224.654297-.371094l.541015-.30664a15 15 0 0 0  .267578-1.736328c.026611-.209623.035177-.46541.048829-.707032a15 15 0 0 0  .039062-.757812c0-8.284271-6.715729-15-15-15z" fill="#ffd739"/><circle cx="24" cy="24" fill="#ff8c00" r="9"/><path d="m41.923828 23.5c-.179599.63497-.696551 1.24362-1.564453 1.730469l-30.4160156 17.234375c-1.2995566.750297-2.4383932.683343-3.1679688-.021485-.478784-.477462-.7753906-1.251554-.7753906-2.251953v1c0 1.000399.2966066 1.774491.7753906 2.251953.7295756.704828 1.8684122.771782 3.1679688.021485l30.4160156-17.234375c1.320283-.740611 1.837011-1.761649 1.564453-2.730469z" opacity=".3"/><path d="m24 9c-3.804425 0-7.267795 1.427581-9.912109 3.761719a15 15 0 0 0 -.00586.005859c-.362461.320299-.709095.656244-1.039062 1.009766a15 15 0 0 0 -.078125.08789c-.301308.327903-.58789.667684-.859375 1.021485a15 15 0 0 0 -.126953.169922c-.251099.33696-.488313.683088-.710938 1.041015a15 15 0 0 0 -.128906.212891c-.209685.34994-.404734.708475-.585938 1.076172a15 15 0 0 0 -.125.257812c-.167934.357927-.321134.723014-.4609371 1.095703a15 15 0 0 0 -.1074219.292969c-.1260688.358792-.2369664.723065-.3359375 1.09375a15 15 0 0 0 -.0996094.384766c-.0784188.3287-.1447886.661347-.2011719.998047a15 15 0 0 0 -.0839843.552734c-.0359881.278353-.0615205.558876-.0820313.841797a15 15 0 0 0 -.0566406 1.095703c0 .170794.018627.336764.0253906.505859a15 15 0 0 1  .03125-.601562c.02051-.282921.0460433-.563444.0820313-.841797a15 15 0 0 1  .0839843-.552734c.0563833-.3367.1227529-.669347.2011719-.998047a15 15 0 0 1  .0996094-.384766c.0989711-.370685.2098687-.734958.3359375-1.09375a15 15 0 0 1  .1074219-.292969c.1398031-.372689.2930481-.737817.4609371-1.095703a15 15 0 0 1  .125-.257812c.181204-.367697.376253-.726232.585938-1.076172a15 15 0 0 1  .128906-.212891c.222625-.357927.459839-.704055.710938-1.041015a15 15 0 0 1  .126953-.169922c.271485-.353801.558067-.693582.859375-1.021485a15 15 0 0 1  .078125-.08789c.329967-.353522.676601-.689467 1.039062-1.009766a15 15 0 0 1  .00586-.005859c2.644314-2.334138 6.107684-3.761719 9.912109-3.761719 8.114763 0 14.707517 6.44827 14.974609 14.498047a15 15 0 0 0  .025391-.498047c0-8.284271-6.715729-15-15-15z" fill="#fff" opacity=".2"/></svg>

<?xml version="1.0" encoding="UTF-8" standalone="no"?>
<svg
   xmlns:dc="http://purl.org/dc/elements/1.1/"
   xmlns:cc="http://creativecommons.org/ns#"
   xmlns:rdf="http://www.w3.org/1999/02/22-rdf-syntax-ns#"
   xmlns:svg="http://www.w3.org/2000/svg"
   xmlns="http://www.w3.org/2000/svg"
   xmlns:sodipodi="http://sodipodi.sourceforge.net/DTD/sodipodi-0.dtd"
   xmlns:inkscape="http://www.inkscape.org/namespaces/inkscape"
   x="0px"
   y="0px"
   viewBox="0 0 48 48"
   hola_ext_inject="disabled"
   id="svg2"
   version="1.1"
   inkscape:version="0.91 r13725"
   sodipodi:docname="google-play-music-desktop-player.svg"
   width="48"
   height="48">
  <metadata
     id="metadata54">
    <rdf:RDF>
      <cc:Work
         rdf:about="">
        <dc:format>image/svg+xml</dc:format>
        <dc:type
           rdf:resource="http://purl.org/dc/dcmitype/StillImage" />
        <dc:title></dc:title>
      </cc:Work>
    </rdf:RDF>
  </metadata>
  <defs
     id="defs52" />
  <sodipodi:namedview
     pagecolor="#ffffff"
     bordercolor="#666666"
     borderopacity="1"
     objecttolerance="10"
     gridtolerance="10"
     guidetolerance="10"
     inkscape:pageopacity="0"
     inkscape:pageshadow="2"
     inkscape:window-width="1600"
     inkscape:window-height="853"
     id="namedview50"
     showgrid="false"
     inkscape:zoom="10.66"
     inkscape:cx="33.880258"
     inkscape:cy="21.850375"
     inkscape:window-x="0"
     inkscape:window-y="26"
     inkscape:window-maximized="1"
     inkscape:current-layer="svg2" />
  <linearGradient
     id="a"
     x1="98.985703"
     x2="98.985703"
     y1="183.6666"
     y2="7.9380002"
     gradientUnits="userSpaceOnUse"
     gradientTransform="matrix(0.2279924,0,0,0.22736347,1.4173528,2.1759583)">
    <stop
       offset="0"
       stop-color="#FFF"
       stop-opacity="0"
       id="stop11" />
    <stop
       offset="1"
       stop-color="#FFF"
       stop-opacity="0.1"
       id="stop13" />
  </linearGradient>
  <linearGradient
     id="b"
     x1="104.3169"
     x2="119.2413"
     y1="110.4006"
     y2="136.2504"
     gradientUnits="userSpaceOnUse"
     gradientTransform="matrix(0.22727311,0,0,0.22727311,1.4545378,2.1925796)">
    <stop
       offset="0"
       stop-color="#991700"
       stop-opacity="0"
       id="stop24" />
    <stop
       offset="1"
       stop-color="#991700"
       stop-opacity="0.1"
       id="stop26" />
  </linearGradient>
  <path
     style="fill:#eb4d27;fill-opacity:1"
     inkscape:connector-curvature="0"
     d="M 40.358455,21.751952 9.9442685,4.5178019 C 8.6447119,3.7902389 7.4819506,3.8584479 6.7751742,4.5405383 l 0,0 C 6.2735908,5.0180016 6,5.7910373 6,6.7914366 L 6,41.191529 c 0,1.000399 0.2963902,1.773436 0.7751742,2.250898 l 0,0 c 0.7295756,0.704828 1.8695377,0.773037 3.1690943,0.02274 L 40.358455,26.231013 c 2.188727,-1.227763 2.188727,-3.228562 0,-4.479061 z"
     id="path8" />
  <path
     style="fill:#ffffff;fill-opacity:1;opacity:0.2"
     d="M 8.1367188 4 C 7.5952368 4.0113682 7.1287788 4.1999704 6.7753906 4.5410156 C 6.2738072 5.0184789 6 5.7906163 6 6.7910156 L 6 7.7910156 C 6 6.7906163 6.2738072 6.0184789 6.7753906 5.5410156 C 7.482167 4.8589252 8.6438028 4.7900151 9.9433594 5.5175781 L 40.359375 22.751953 C 41.227819 23.248127 41.744547 23.862738 41.923828 24.5 C 42.197152 23.533665 41.6802 22.506588 40.359375 21.751953 L 9.9433594 4.5175781 C 9.2935811 4.1537966 8.6782007 3.9886318 8.1367188 4 z "
     id="path4226" />
  <path
     style="opacity:1;fill:#ffd739;fill-opacity:1;stroke:none;stroke-width:8;stroke-linecap:round;stroke-linejoin:round;stroke-miterlimit:4;stroke-dasharray:none;stroke-opacity:1"
     d="M 24 9 C 20.195575 9 16.732205 10.427581 14.087891 12.761719 A 15 15 0 0 0 14.082031 12.767578 C 13.71957 13.087877 13.372936 13.423822 13.042969 13.777344 A 15 15 0 0 0 12.964844 13.865234 C 12.663536 14.193137 12.376954 14.532918 12.105469 14.886719 A 15 15 0 0 0 11.978516 15.056641 C 11.727417 15.393601 11.490203 15.739729 11.267578 16.097656 A 15 15 0 0 0 11.138672 16.310547 C 10.928987 16.660487 10.733938 17.019022 10.552734 17.386719 A 15 15 0 0 0 10.427734 17.644531 C 10.2598 18.002458 10.1066 18.367545 9.9667969 18.740234 A 15 15 0 0 0 9.859375 19.033203 C 9.7333062 19.391995 9.6224086 19.756268 9.5234375 20.126953 A 15 15 0 0 0 9.4238281 20.511719 C 9.3454093 20.840419 9.2790394 21.173066 9.2226562 21.509766 A 15 15 0 0 0 9.1386719 22.0625 C 9.1026838 22.340853 9.0771514 22.621376 9.0566406 22.904297 A 15 15 0 0 0 9 24 C 9 24.469526 9.0281042 24.932113 9.0703125 25.390625 A 15 15 0 0 0 9.1035156 25.679688 C 9.1484537 26.082183 9.2090092 26.478866 9.2851562 26.871094 A 15 15 0 0 0 9.3183594 27.042969 C 9.5183952 28.012481 9.8121516 28.946617 10.189453 29.837891 A 15 15 0 0 0 10.189453 29.841797 C 10.779831 31.235473 11.575056 32.5197 12.537109 33.660156 C 14.03035 35.430303 15.917366 36.856852 18.074219 37.785156 C 18.122758 37.806047 18.172878 37.811503 18.222656 37.8125 A 15 15 0 0 0 19.224609 38.205078 L 37.449219 27.878906 C 37.69521 27.806746 37.913434 27.685682 38.103516 27.507812 L 38.644531 27.201172 A 15 15 0 0 0 38.912109 25.464844 C 38.93872 25.255221 38.947286 24.999434 38.960938 24.757812 A 15 15 0 0 0 39 24 C 39 15.715729 32.284271 9 24 9 z "
     id="path4216" />
  <circle
     style="fill:#ff8c00"
     cx="24"
     cy="24"
     id="circle21"
     r="9" />
  <path
     style="fill:#000000;fill-opacity:1;opacity:0.3"
     d="M 41.923828 23.5 C 41.744229 24.13497 41.227277 24.74362 40.359375 25.230469 L 9.9433594 42.464844 C 8.6438028 43.215141 7.5049662 43.148187 6.7753906 42.443359 C 6.2966066 41.965897 6 41.191805 6 40.191406 L 6 41.191406 C 6 42.191805 6.2966066 42.965897 6.7753906 43.443359 C 7.5049662 44.148187 8.6438028 44.215141 9.9433594 43.464844 L 40.359375 26.230469 C 41.679658 25.489858 42.196386 24.46882 41.923828 23.5 z "
     id="path4231" />
  <path
     style="opacity:0.2;fill:#ffffff;fill-opacity:1;stroke:none;stroke-width:8;stroke-linecap:round;stroke-linejoin:round;stroke-miterlimit:4;stroke-dasharray:none;stroke-opacity:1"
     d="M 24 9 C 20.195575 9 16.732205 10.427581 14.087891 12.761719 A 15 15 0 0 0 14.082031 12.767578 C 13.71957 13.087877 13.372936 13.423822 13.042969 13.777344 A 15 15 0 0 0 12.964844 13.865234 C 12.663536 14.193137 12.376954 14.532918 12.105469 14.886719 A 15 15 0 0 0 11.978516 15.056641 C 11.727417 15.393601 11.490203 15.739729 11.267578 16.097656 A 15 15 0 0 0 11.138672 16.310547 C 10.928987 16.660487 10.733938 17.019022 10.552734 17.386719 A 15 15 0 0 0 10.427734 17.644531 C 10.2598 18.002458 10.1066 18.367545 9.9667969 18.740234 A 15 15 0 0 0 9.859375 19.033203 C 9.7333062 19.391995 9.6224086 19.756268 9.5234375 20.126953 A 15 15 0 0 0 9.4238281 20.511719 C 9.3454093 20.840419 9.2790395 21.173066 9.2226562 21.509766 A 15 15 0 0 0 9.1386719 22.0625 C 9.1026838 22.340853 9.0771514 22.621376 9.0566406 22.904297 A 15 15 0 0 0 9 24 C 9 24.170794 9.018627 24.336764 9.0253906 24.505859 A 15 15 0 0 1 9.0566406 23.904297 C 9.0771506 23.621376 9.1026839 23.340853 9.1386719 23.0625 A 15 15 0 0 1 9.2226562 22.509766 C 9.2790395 22.173066 9.3454091 21.840419 9.4238281 21.511719 A 15 15 0 0 1 9.5234375 21.126953 C 9.6224086 20.756268 9.7333062 20.391995 9.859375 20.033203 A 15 15 0 0 1 9.9667969 19.740234 C 10.1066 19.367545 10.259845 19.002417 10.427734 18.644531 A 15 15 0 0 1 10.552734 18.386719 C 10.733938 18.019022 10.928987 17.660487 11.138672 17.310547 A 15 15 0 0 1 11.267578 17.097656 C 11.490203 16.739729 11.727417 16.393601 11.978516 16.056641 A 15 15 0 0 1 12.105469 15.886719 C 12.376954 15.532918 12.663536 15.193137 12.964844 14.865234 A 15 15 0 0 1 13.042969 14.777344 C 13.372936 14.423822 13.71957 14.087877 14.082031 13.767578 A 15 15 0 0 1 14.087891 13.761719 C 16.732205 11.427581 20.195575 10 24 10 C 32.114763 10 38.707517 16.44827 38.974609 24.498047 A 15 15 0 0 0 39 24 C 39 15.715729 32.284271 9 24 9 z "
     id="path4236" />
</svg>
